X:11
T:The Lass of Ochram, Retreat
S:Ashworth's Instructor, p. 32
M:3/4
%%MIDI program 72
%%MIDI transpose 8
L:1/8
K:D
A2|d2 d2 c/d/e/c/|d2 d2 B2|e2 efge|f2 d2 d>c|B2 B>cd>B|A2 A2 G2|FAdAGF|F2 E2::
G>F|G/A/B/G/ E2 G2|F/G/A/F/ D2 G2|FAdAGF|F2 E2 A>A|d2 Bgfg|ec A2 GF|GBAGFE|E2 D2:|]

